X: 16653
T: Hannah's
R: polka
M: 2/4
K: Gmajor
GB DE|G2 Ge|dB AG|d/e/e/B/ AG|
GB DE|G2 Ge|dB AG/A/|BG G2:|
Bd Bd|g2 ge|dB AG|d/e/d/B/ AG|
Bd Bd|g2 ge|dB AG/A/|BG G2:|

